X:52402
T:Birkhall's Hornpipe
C:P/M MJ Adler
H:
B: 
O:Arranged by Kevin Fraser
Z:Kevin Fraser
Q:1/4=70
M:2/4
L:1/16
K:HP
R:March
U: R = ///
U: r = //
U: V = !accent!
V:M gstem=up stem=down name="Melody" sname="Melody"
V:H gstem=up stem=down name="Harmony" sname="Harmony"
V:C gstem=up stem=down name="C-Harmony" sname=C-Harmony"
V:S gstem=up stem=down dyn=up stafflines=1 clef=perc middle=G name="Snare" sname="Snare" sname="Snare"
V:B gstem=up stem=down clef=none dyn=up name="Bass" sname="Bass"
V:T gstem=up stem=down clef=none dyn=up name="Tenor" sname="Tenor"
V:BB gstem=up stem=down name="Brass Bass" sname="ABCD-C" transpose=-1  octave=-1 clef=bass
V:BC gstem=up stem=down name="Brass Chord" sname="ABCD-D" transpose=-1
V:BD gstem=up stem=down name="Brass Chord 2" sname="ABCD-B" transpose=-1
V:P gstem=up stem=down name="Piano" octave=-1
I:MIDI=program 110
%%MIDI gracedivider 40
% %score {M (BS)}
%%landscape
V:M
%%MIDI program 110
%%MIDI vol 60
[V:M]|:          {g}A2{d}c2 {g}e>A{g}A>{d}A  | {gf}g2{a}f2 {g}e>d{g}B>{d}A  | {g}G2{d}B2 {g}G>{d}B{g}B>{G}B     | {g}G>g{f}g>f- f>d{g}e>f         | $
[V:M]          | {g}A2{d}c2 {g}e>A{g}A>{d}A  | {gf}g2{a}f2 {g}e>d{g}B>{d}A  | {g}G>B{G}B>{g}G- G>g{f}g>f-          | f>de2 {gAGAG}A2            :| $
[V:M]|:          {g}A>e{G}e>A {a}g>f{g}e>g     | {g}c>{d}c{G}c>B {g}c>d{g}B>A   | {g}G2{d}B2 {g}G>{d}B{g}B>{G}B     | {g}G>g{f}g>f- f>d{g}e>f         | $
[V:M]          | {g}A>e{G}e>A {a}g>f{g}e>g     | {g}c>{d}c{G}c>B {g}c>d{g}B>A   | {g}G>B{G}B>{g}G- G>g{f}g>f-          | f>de2 {gAGAG}A2            :| $
[V:M]|:          {g}e>A{g}f>A {g}e>A{g}A>{d}A  | {GdG}c2{g}c>B {g}c>d{g}B>A    | {g}G2{d}B2 {g}G>{d}B{g}B>{G}B     | {g}G>g{f}g>f- f>d{g}e>f         | $
[V:M]          | {g}e>A{g}f>A {g}e>A{g}A>{d}A  | {GdG}c2{g}c>B {g}c>d{g}B>A    | {g}G>B{G}B>{g}G- G>g{f}g>f-          | f>de2 {gAGAG}A2            :| $
[V:M]|:          {g}e>{f}e{A}e>g a>{g}a{g}a>g  | {g}e>ad>a c>aB>A               | {g}G2{d}B2 {g}G>{d}B{g}B>{G}B     | {g}G>g{f}g>f- f>d{g}e>f         | $
[V:M]          | {g}e>{f}e{A}e>g a>{g}a{g}a>g  | {g}e>ad>a c>aB>A               | {g}G>B{G}B>{g}G- G>g{f}g>f-          | f>de2 {gAGAG}A2            :| $
W: ASPD plays slowly with a Blues/Jazz feel

